!!!COM:	Bach, Johann Sebastian
!!!CDT:	1685/02/21/-1750/07/28/
!!!OTL@@DE:	Nun la&szlig;t uns Gott, dem Herren
!!!SCT:	BWV 194/12
!!!PC#:	257
!!!AGN:	chorale
**kern	**kern	**kern	**kern
*ICvox	*ICvox	*ICvox	*ICvox
*Ibass	*Itenor	*Ialto	*Isoprn
*I"Bass	*I"Tenor	*I"Alto	*I"Soprano
*clefF4	*clefGv2	*clefG2	*clefG2
*k[b-e-]	*k[b-e-]	*k[b-e-]	*k[b-e-]
*B-:	*B-:	*B-:	*B-:
*M3/4	*M3/4	*M3/4	*M3/4
*MM100	*MM100	*MM100	*MM100
4B-	4d	4f	4b-
=1	=1	=1	=1
2G	2d	2g	2b-
4D	8dL	4f	4a
.	8cJ	.	.
=2	=2	=2	=2
2E-	4B-	4e-	4g
.	4c	4f	4a
4D	4B-	4f	4b-
=3	=3	=3	=3
4E-	2B-	4g	2.cc
2F	.	2f	.
.	4A	.	.
=4	=4	=4	=4
2BB-;	2d;	2f;	2b-;
4B-	4d	4f	4b-
=5	=5	=5	=5
2D	2d	2f	2b-
4E	4c	4g	4cc
=6	=6	=6	=6
4F	2c	2f	4a
4G	.	.	4g
4A	4c	4f	4f
=7	=7	=7	=7
2.G	4d	4f	2.b-
.	4c	8eL	.
.	.	8dJ	.
.	4B-	4e	.
=8	=8	=8	=8
2F;	2c;	2f;	2a;
4D	4d	4f#	4a
=9	=9	=9	=9
2G	2d	2g	2b-
4E-	4e-	4g	4b-
=10	=10	=10	=10
2C	2A	2e-	2cc
4BB-	4B-	4d	4dd
=11	=11	=11	=11
2.C	4B-	4e	2.cc
.	8AL	8fL	.
.	8G	8e	.
.	8B-	8g	.
.	8AJ	8fJ	.
=12	=12	=12	=12
2F;	2A;	2f;	2cc;
4F#	4d	4a	4dd
=13	=13	=13	=13
4G	4d	4b-	2ee-
4A	4c	4cc	.
4B-	4B-	4fnX	4dd
=14	=14	=14	=14
4E	4B-	4g	4cc
4F#	4A	4a	8ddL
.	.	.	8ccJ
4G	4B-	8dL	[4b-
.	.	8e-XJ	.
=15	=15	=15	=15
4D	2B-	4fnX	8b-L]
.	.	.	8ccJ
4E-	.	4g	4.cc
4F	4A	4f	.
.	.	.	8b-
=16	=16	=16	=16
2.BB-;	2.d;	2.f;	2.b-;
==	==	==	==
*-	*-	*-	*-
!!!hum2abc: -Q ''
!!!title: @{PC#}. @{OTL@@DE}
!!!YOR1: 371 vierstimmige Choralges&auml;nge von Johann Sebastian Bach, 
!!!YOR2: 4th ed. by Alfred D&ouml;rffel (Leipzig: Breitkopf und H&auml;rtel, 
!!!YOR2: c.1875). 178 pp. Plate "V.A.10".  reprint: J.S. Bach, 371 Four-Part 
!!!YOR4: Chorales (New York: Associated Music Publishers, Inc., c.1940).
!!!SMS: B&H, 4th ed, Alfred D&ouml;rffel, c.1875, plate V.A.10
!!!EED:  Craig Stuart Sapp
!!!EEV:  2009/05/22
